!!!ONR: No. 18
!! From Harold Courlander, "Haiti Singing"
!! Chapel Hill: University of North Carolina Press, 1939
!! Copyright University of North Carolina Press
!!!ENC: D. Huron
**kern
*clefG2
*k[b-e-a-]
*M2/4
=1-
4r
8r
8b-
=2
4cc
8a-
8f
=3
[4b-
12b-]
(12g
12b-)
=4
4cc
8a-
8f
=5
[4b-
16b-]
16g
16b-
16cc
=6
8ee-
8dd
8cc
(16b-
[16g
=7
8g])
8e-
8f
8e-
=8
4c
8f
[8f
=9
4f]
(8g
8b-)
=10
[4g
12g]
12e-
12c
=11
[4e-
16e-]
16e-
16g
16b-
=12
[4g
12g]
12e-
12c
=13
(8e-
[4.d
=14
8d])
8g
8b-
8cc
=15
8dd
8b-
[4cc
=16
8cc]
(8b-
8g)
([8e-
=17
8e-]
8c)
8e-
8e-
=18
[4d
16d]
(16f
16g
16b-)
=19
4g
8e-
8c
=20
(8e-
[8d
16d])
16e-
16g
16b-
=21
[4g
12g]
(12ee-
12cc)
=22
4ee-
[4dd
=23
8dd]
8g
8b-
8cc
=24
8dd
8dd
[4cc
=25
8cc]
(8b-
8g)
24e-
24f
24e-
=26
4c
8g
[8f
=27
8f]
8g
8b-
8cc
=28
8ee-
(8dd
8cc)
(16b-
[16g
=29
8g])
8e-
8f
8e-
=30
4c
8e-
[8f
=31
8f]
8g
8b-
8b-
=32
[4g
12g]
(12e-
12c)
=33
[2e-
=34
8e-]
(8g
8b-)
8b-
=35
[4g
12g]
(12ee-
[12cc
=36
8cc])
8a-
8f
[8b-
=37
8b-]
8g
8b-
8cc
=38
8ee-
8dd
[4cc
=39
8cc]
8b-
8g
[8e-
=40
16e-]
8c
16f
8f
[8c
=41
8c]
8f
4f
==
*-
